app/images/icons/blog-one-arrow.svg

<?xml version="1.0" encoding="UTF-8"?>
<svg xmlns="http://www.w3.org/2000/svg" xmlns:xlink="http://www.w3.org/1999/xlink" width="12px" height="14px" viewBox="0 0 12 13" version="1.1">
<g id="surface1">
<path style="fill:#023D4C;" d="M 11.75 7.074219 L 7.460938 11.136719 C 7.296875 11.296875 7.078125 11.375 6.855469 11.375 C 6.636719 11.375 6.417969 11.296875 6.25 11.136719 C 5.917969 10.820312 5.917969 10.304688 6.25 9.988281 L 9.074219 7.3125 L 0.855469 7.3125 C 0.382812 7.3125 0 6.949219 0 6.5 C 0 6.050781 0.382812 5.6875 0.855469 5.6875 L 9.074219 5.6875 L 6.25 3.011719 C 5.917969 2.695312 5.917969 2.179688 6.25 1.863281 C 6.585938 1.546875 7.128906 1.546875 7.464844 1.863281 L 11.75 5.925781 C 12.082031 6.242188 12.082031 6.757812 11.75 7.074219 Z M 11.75 7.074219 "/>
</g>
</svg>

<svg xmlns="http://www.w3.org/2000/svg" width="12" height="14" viewBox="0 0 12 13"><path d="M11.75 7.074l-4.29 4.063a.86.86 0 01-.605.238.873.873 0 01-.605-.238.787.787 0 010-1.149l2.824-2.675H.855C.383 7.313 0 6.949 0 6.5c0-.45.383-.813.855-.813h8.22L6.25 3.013a.787.787 0 010-1.149.896.896 0 011.215 0l4.285 4.063a.787.787 0 010 1.148zm0 0" fill="#023d4c"/></svg>
